chrome/icons/tiles.svg

<svg height="16" viewBox="64 64 896 896" width="16" xmlns="http://www.w3.org/2000/svg" xmlns:xlink="http://www.w3.org/1999/xlink">
  <path d="M160,448C147,448 134.667,445.5 123,440.5C111.333,435.5 101.083,428.583 92.25,419.75C83.4167,410.917 76.5,400.667 71.5,389C66.5,377.333 64,365 64,352L64,160C64,147 66.5,134.667 71.5,123C76.5,111.333 83.4167,101.083 92.25,92.25C101.083,83.4167 111.333,76.5001 123,71.5C134.667,66.5001 147,64.0001 160,64L480,64C493,64.0001 505.333,66.5001 517,71.5C528.667,76.5001 538.917,83.4167 547.75,92.25C556.583,101.083 563.5,111.333 568.5,123C573.5,134.667 576,147 576,160L576,352C576,365 573.5,377.333 568.5,389C563.5,400.667 556.583,410.917 547.75,419.75C538.917,428.583 528.667,435.5 517,440.5C505.333,445.5 493,448 480,448ZM800,448C787,448 774.667,445.5 763,440.5C751.333,435.5 741.083,428.583 732.25,419.75C723.417,410.917 716.5,400.667 711.5,389C706.5,377.333 704,365 704,352L704,160C704,147 706.5,134.667 711.5,123C716.5,111.333 723.417,101.083 732.25,92.25C741.083,83.4167 751.333,76.5001 763,71.5C774.667,66.5001 787,64.0001 800,64L864,64C877,64.0001 889.333,66.5001 901,71.5C912.667,76.5001 922.917,83.4167 931.75,92.25C940.583,101.083 947.5,111.333 952.5,123C957.5,134.667 960,147 960,160L960,352C960,365 957.5,377.333 952.5,389C947.5,400.667 940.583,410.917 931.75,419.75C922.917,428.583 912.667,435.5 901,440.5C889.333,445.5 877,448 864,448ZM480,384C488.667,384 496.167,380.833 502.5,374.5C508.833,368.167 512,360.667 512,352L512,160C512,151.333 508.833,143.833 502.5,137.5C496.167,131.167 488.667,128 480,128L160,128C151.333,128 143.833,131.167 137.5,137.5C131.167,143.833 128,151.333 128,160L128,352C128,360.667 131.167,368.167 137.5,374.5C143.833,380.833 151.333,384 160,384ZM864,384C872.667,384 880.167,380.833 886.5,374.5C892.833,368.167 896,360.667 896,352L896,160C896,151.333 892.833,143.833 886.5,137.5C880.167,131.167 872.667,128 864,128L800,128C791.333,128 783.833,131.167 777.5,137.5C771.167,143.833 768,151.333 768,160L768,352C768,360.667 771.167,368.167 777.5,374.5C783.833,380.833 791.333,384 800,384ZM160,960C147,960 134.667,957.5 123,952.5C111.333,947.5 101.083,940.583 92.25,931.75C83.4167,922.917 76.5,912.667 71.5,901C66.5,889.333 64,877 64,864L64,672C64,659 66.5,646.667 71.5,635C76.5,623.333 83.4167,613.083 92.25,604.25C101.083,595.417 111.333,588.5 123,583.5C134.667,578.5 147,576 160,576L224,576C237,576 249.333,578.5 261,583.5C272.667,588.5 282.917,595.417 291.75,604.25C300.583,613.083 307.5,623.333 312.5,635C317.5,646.667 320,659 320,672L320,864C320,877 317.5,889.333 312.5,901C307.5,912.667 300.583,922.917 291.75,931.75C282.917,940.583 272.667,947.5 261,952.5C249.333,957.5 237,960 224,960ZM544,960C531,960 518.667,957.5 507,952.5C495.333,947.5 485.083,940.583 476.25,931.75C467.417,922.917 460.5,912.667 455.5,901C450.5,889.333 448,877 448,864L448,672C448,659 450.5,646.667 455.5,635C460.5,623.333 467.417,613.083 476.25,604.25C485.083,595.417 495.333,588.5 507,583.5C518.667,578.5 531,576 544,576L864,576C877,576 889.333,578.5 901,583.5C912.667,588.5 922.917,595.417 931.75,604.25C940.583,613.083 947.5,623.333 952.5,635C957.5,646.667 960,659 960,672L960,864C960,877 957.5,889.333 952.5,901C947.5,912.667 940.583,922.917 931.75,931.75C922.917,940.583 912.667,947.5 901,952.5C889.333,957.5 877,960 864,960ZM224,896C232.667,896 240.167,892.833 246.5,886.5C252.833,880.167 256,872.667 256,864L256,672C256,663.333 252.833,655.833 246.5,649.5C240.167,643.167 232.667,640 224,640L160,640C151.333,640 143.833,643.167 137.5,649.5C131.167,655.833 128,663.333 128,672L128,864C128,872.667 131.167,880.167 137.5,886.5C143.833,892.833 151.333,896 160,896ZM864,896C872.667,896 880.167,892.833 886.5,886.5C892.833,880.167 896,872.667 896,864L896,672C896,663.333 892.833,655.833 886.5,649.5C880.167,643.167 872.667,640 864,640L544,640C535.333,640 527.833,643.167 521.5,649.5C515.167,655.833 512,663.333 512,672L512,864C512,872.667 515.167,880.167 521.5,886.5C527.833,892.833 535.333,896 544,896Z" fill="context-fill" fill-opacity="context-fill-opacity">
  </path>
</svg>

<svg xmlns="http://www.w3.org/2000/svg" width="16" height="16" viewBox="64 64 896 896"><path fill="context-fill" fill-opacity="context-fill-opacity" d="M160 448q-19.5 0-37-7.5t-30.75-20.75T71.5 389 64 352V160q0-19.5 7.5-37t20.75-30.75T123 71.5t37-7.5h320q19.5 0 37 7.5t30.75 20.75T568.5 123t7.5 37v192q0 19.5-7.5 37t-20.75 30.75T517 440.5t-37 7.5Zm640 0q-19.5 0-37-7.5t-30.75-20.75T711.5 389t-7.5-37V160q0-19.5 7.5-37t20.75-30.75T763 71.5t37-7.5h64q19.5 0 37 7.5t30.75 20.75T952.5 123t7.5 37v192q0 19.5-7.5 37t-20.75 30.75T901 440.5t-37 7.5Zm-320-64q13 0 22.5-9.5T512 352V160q0-13-9.5-22.5T480 128H160q-13 0-22.5 9.5T128 160v192q0 13 9.5 22.5T160 384Zm384 0q13 0 22.5-9.5T896 352V160q0-13-9.5-22.5T864 128h-64q-13 0-22.5 9.5T768 160v192q0 13 9.5 22.5T800 384ZM160 960q-19.5 0-37-7.5t-30.75-20.75T71.5 901 64 864V672q0-19.5 7.5-37t20.75-30.75T123 583.5t37-7.5h64q19.5 0 37 7.5t30.75 20.75T312.5 635t7.5 37v192q0 19.5-7.5 37t-20.75 30.75T261 952.5t-37 7.5Zm384 0q-19.5 0-37-7.5t-30.75-20.75T455.5 901t-7.5-37V672q0-19.5 7.5-37t20.75-30.75T507 583.5t37-7.5h320q19.5 0 37 7.5t30.75 20.75T952.5 635t7.5 37v192q0 19.5-7.5 37t-20.75 30.75T901 952.5t-37 7.5Zm-320-64q13 0 22.5-9.5T256 864V672q0-13-9.5-22.5T224 640h-64q-13 0-22.5 9.5T128 672v192q0 13 9.5 22.5T160 896Zm640 0q13 0 22.5-9.5T896 864V672q0-13-9.5-22.5T864 640H544q-13 0-22.5 9.5T512 672v192q0 13 9.5 22.5T544 896Z"/></svg>
